X:2024 
T:Colm and Phoebe 
C:Charles Clague, Coachman
O:Isle of Man
S:Traditional
Z:Clague collection
B:Kiaull Vannin #24 
L:1/4
M:3/4 
Q:100 
K:G 
G|d d e|d G B/d/|c B A|G2 d|g G A|B/c/ d d|g f e|d2 d| 
g e c|B A B/d/|G g B|c B c/d/|e F A|G g d|e F A|G2|| 
